X:026
L:1/8
M:2C|
K:DDor
c2 ed c2 GB | c2 GF (EC)CE | DEFG ABcA | {/^c}d2 AG (FD) D ||
f | ecgc acgc | GAcd eccg | fdad bdad | fgag fddf |
ecgc acgc | GAcd eccg | afge fde^c | d2 AG (FD) D |]

